X: 14
T: Coleraine, The
Z: Owen H
S: https://thesession.org/tunes/17#setting50580
R: jig
M: 6/8
L: 1/8
K: Bmin
|:FBB Bcd|c2f ffe|dcB Bcd|c^AF FBF|
FBB Bcd|c2f ffe|dcB ^AF^A|1 BBB BBB:|2 BBB BBc||
|:d2d ded|cea a^aa|bfe dcB|^ABc F^G^A|
BBB cBc|def gfe|dcB ^AF^A|1 BBB BBc:|2 BBB BBB||

